X:1
T:Valdez, 11.11.11.11 D
T:Valdez, 11.11.11.11 D
T:Ira David Sankey, 1881
T:Public Domain Courtesy of the Cyber Hymnal™
C:Ira David Sankey, 1881
Z:Public Domain
Z:Courtesy of the Cyber Hymnal™
%%score ( 1 2 ) ( 3 4 )
L:1/8
Q:1/4=115
M:4/4
K:C
V:1 treble 
V:2 treble 
V:3 bass 
V:4 bass 
V:1
 [EG]2 [EG]2 [EG]3 [FA] | [EG]4 [CE]4 | C2 [CE]2 [EG]2 [Gc]2 | [Ge]6 z2 | [Fd]2 [Fc]2 [GB]2 [FA]2 | %5
 [EG]4 [Ec]4 | [DB]2 [DA]2 [DG]2 [D^F]2 | [DG]6 z2 | [FG]2 [FG]2 [FA]2 [FB]2 | [Fd]4 [Ec]4 | %10
 [Ac]2 [Ac]2 [Ad]2 [Ad]2 | [^Ge]6 z2 | [Ge]2 [Fd]2 [Ec]2 [DB]2 | [Fc]4 [FA]4 | %14
 [Fc]2 [FB]2 [FA]2 [FB]2 | [Ec]6 z2 | [Gd]2 [Gd]2 [Gd]3 [Ge] | [Gd]4 [GB]4 | %18
 [Bd]2 [Ac]2 [GB]2 [^FA]2 | [GB]6 z2 | [Gd]2 [Gd]2 [Gd]3 [Ge] | [Gd]4 [GB]4 | %22
 [Gd]2 [Gc]2 [GB]2 [^FA]2 | G6 z2 x4 | [EG]2 [EG]2 [EG]3 [FA] | [EG]4 [CE]4 | %26
 C2 [CE]2 [EG]2 [Gc]2 | [Ge]6 z2 | [Fd]2 [Fc]2 [FB]2 [FA]2 | [EG]4 [Gc]4 | %30
 [Fc]2 [FB]2 [FA]2 [FB]2 | [Ec]6 z2 |] %32
V:2
 x8 | x8 | C2 x6 | x8 | x8 | x8 | x8 | x8 | x8 | x8 | x8 | x8 | x8 | x8 | x8 | x8 | x8 | x8 | x8 | %19
 x8 | x8 | x8 | x8 | G6 x6 | x8 | x8 | C2 x6 | x8 | x8 | x8 | x8 | x8 |] %32
V:3
 [C,C]2 [C,C]2 [C,C]3 [C,C] | [C,C]4 [C,G,]4 | [C,E,]2 [C,G,]2 [C,C]2 [C,E]2 | [C,C]6 z2 | %4
 [F,A,]2 [F,A,]2 [F,B,]2 [F,C]2 | [C,C]4 [C,G,]4 | [D,G,]2 [D,C]2 [D,B,]2 [D,A,]2 | [G,B,]6 z2 | %8
 [G,B,]2 [G,B,]2 [G,C]2 [G,,G,]2 | [C,G,]4 [C,C]4 | [A,E]2 [A,E]2 [F,D]2 [F,A,]2 | [E,B,]6 z2 | %12
 [C,C]2 [C,G,]2 [C,G,]2 [E,^G,]2 | [F,A,]4 [F,D]4 | [G,D]2 [G,D]2 [G,C]2 [G,,G,]2 | [C,G,]6 z2 | %16
 [G,B,]2 [G,B,]2 [G,B,]3 [G,D] | [G,B,]4 [G,D]4 | [D,D]2 [D,D]2 [D,D]2 [D,D]2 | [G,D]6 z2 | %20
 [G,B,]2 [G,B,]2 [G,B,]3 [G,C] | [G,B,]4 [G,D]4 | [D,B,]2 [D,A,]2 [D,D]2 [D,C]2 | %23
 B,6 (F,2 E,2 D,2) | [C,C]2 [C,C]2 [C,C]3 [C,C] | [C,C]4 [C,G,]4 | [C,E,]2 [C,G,]2 [C,C]2 [C,E]2 | %27
 [C,C]6 z2 | [F,A,]2 [F,A,]2 [F,B,]2 [F,C]2 | [C,C]4 [C,E]4 | [G,D]2 [G,D]2 [G,C]2 [G,,G,]2 | %31
 [C,G,]6 z2 |] %32
V:4
 x8 | x8 | x8 | x8 | x8 | x8 | x8 | x8 | x8 | x8 | x8 | x8 | x8 | x8 | x8 | x8 | x8 | x8 | x8 | %19
 x8 | x8 | x8 | x8 | ([G,,-G,]2 G,,6) x4 | x8 | x8 | x8 | x8 | x8 | x8 | x8 | x8 |] %32

